src/assets/buttons/github.svg

<svg height="55" viewBox="0 0 55 55" width="55" xmlns="http://www.w3.org/2000/svg"><g fill="none"><rect fill="#141414" height="55" rx="2" width="55"/><path d="m40.9776018 24.9894877c1.4426352 2.1128147 2.2275985 4.7545254 1.9758445 7.955592-.3408579 4.3280858-4.0266496 9.0549203-8.4620458 9.0549203h-13.985076c-4.4325676 0-8.1197736-4.7268345-8.4606316-9.0549203-.2489253-3.1982975.5346237-5.8386236 1.9744302-7.9514383-.1640644-.2838316-3.6207316-6.3896724.8684099-9.9922569 2.8216249 0 7.1297298 4.5482283 7.1523594 4.5717656 3.5302133-.9982565 7.4833168-.9913338 11.0050441.0221527l-.03253-.0207682s4.3264914-4.5745346 7.155188-4.5745346c4.596632 3.6911953.8542664 10.0199477.8542664 10.0199477zm-7.8199318 14.2414235c2.7353496 0 4.9502191-2.169581 4.9502191-4.8459053 0-8.2643454-5.8356011-4.8888262-10.6076123-4.8888262-4.7734255 0-10.6076123-3.2896775-10.6076123 4.8888262 0 2.6763243 2.2162838 4.8459053 4.9502191 4.8459053zm-.65767-3.2309112c-.8284271 0-1.5-.8954305-1.5-2s.6715729-2 1.5-2 1.5.8954305 1.5 2-.6715729 2-1.5 2zm-10 0c-.8284271 0-1.5-.8954305-1.5-2s.6715729-2 1.5-2 1.5.8954305 1.5 2-.6715729 2-1.5 2z" fill="#fff"/></g></svg>

<svg xmlns="http://www.w3.org/2000/svg" width="55" height="55" viewBox="0 0 55 55">
  <g fill="none">
    <rect width="55" height="55" fill="#141414" rx="2"/>
    <path fill="#FFF" d="M40.9776018,24.9894877 C42.420237,27.1023024 43.2052003,29.7440131 42.9534463,32.9450797 C42.6125884,37.2731655 38.9267967,42 34.4914005,42 L20.5063245,42 C16.0737569,42 12.3865509,37.2731655 12.0456929,32.9450797 C11.7967676,29.7467822 12.5803166,27.1064561 14.0201231,24.9936414 C13.8560587,24.7098098 10.3993915,18.603969 14.888533,15.0013845 C17.7101579,15.0013845 22.0182628,19.5496128 22.0408924,19.5731501 C25.5711057,18.5748936 29.5242092,18.5818163 33.0459365,19.5953028 L33.0134065,19.5745346 C33.0134065,19.5745346 37.3398979,15 40.1685945,15 C44.7652265,18.6911953 41.0228609,25.0199477 41.0228609,25.0199477 L40.9776018,24.9894877 Z M33.15767,39.2309112 C35.8930196,39.2309112 38.1078891,37.0613302 38.1078891,34.3850059 C38.1078891,26.1206605 32.272288,29.4961797 27.5002768,29.4961797 C22.7268513,29.4961797 16.8926645,26.2065022 16.8926645,34.3850059 C16.8926645,37.0613302 19.1089483,39.2309112 21.8428836,39.2309112 L33.15767,39.2309112 Z M32.5,36 C31.6715729,36 31,35.1045695 31,34 C31,32.8954305 31.6715729,32 32.5,32 C33.3284271,32 34,32.8954305 34,34 C34,35.1045695 33.3284271,36 32.5,36 Z M22.5,36 C21.6715729,36 21,35.1045695 21,34 C21,32.8954305 21.6715729,32 22.5,32 C23.3284271,32 24,32.8954305 24,34 C24,35.1045695 23.3284271,36 22.5,36 Z"/>
  </g>
</svg>
